src/shared/assets/ToggleList.svg

<svg width="20" height="20" viewBox="0 0 20 20" fill="none" xmlns="http://www.w3.org/2000/svg">
<g id="Union">
<path fill-rule="evenodd" clip-rule="evenodd" d="M1.29943 0C0.581777 0 0 0.581777 0 1.29944V7.40113C0 8.11879 0.581777 8.70056 1.29944 8.70056H7.40113C8.11879 8.70056 8.70056 8.11879 8.70056 7.40113V1.29943C8.70056 0.581777 8.11879 0 7.40113 0H1.29943ZM1.9209 6.77966V1.9209H6.77966V6.77966H1.9209Z" fill="currentColor"/>
<path fill-rule="evenodd" clip-rule="evenodd" d="M12.5989 0C11.8812 0 11.2994 0.581777 11.2994 1.29944V7.40113C11.2994 8.11879 11.8812 8.70056 12.5989 8.70056H18.7006C19.4182 8.70056 20 8.11879 20 7.40113V1.29943C20 0.581777 19.4182 0 18.7006 0H12.5989ZM13.2203 6.77966V1.9209H18.0791V6.77966H13.2203Z" fill="currentColor"/>
<path fill-rule="evenodd" clip-rule="evenodd" d="M0 12.5989C0 11.8812 0.581777 11.2994 1.29943 11.2994H7.40113C8.11879 11.2994 8.70056 11.8812 8.70056 12.5989V18.7006C8.70056 19.4182 8.11879 20 7.40113 20H1.29944C0.581777 20 0 19.4182 0 18.7006V12.5989ZM1.9209 13.2203V18.0791H6.77966V13.2203H1.9209Z" fill="currentColor"/>
<path fill-rule="evenodd" clip-rule="evenodd" d="M12.5989 11.2994C11.8812 11.2994 11.2994 11.8812 11.2994 12.5989V18.7006C11.2994 19.4182 11.8812 20 12.5989 20H18.7006C19.4182 20 20 19.4182 20 18.7006V12.5989C20 11.8812 19.4182 11.2994 18.7006 11.2994H12.5989ZM13.2203 18.0791V13.2203H18.0791V18.0791H13.2203Z" fill="currentColor"/>
</g>
</svg>

<svg xmlns="http://www.w3.org/2000/svg" width="20" height="20" fill="none"><g fill="currentColor" fill-rule="evenodd" clip-rule="evenodd"><path d="M1.3 0A1.3 1.3 0 0 0 0 1.3V7.4a1.3 1.3 0 0 0 1.3 1.3H7.4a1.3 1.3 0 0 0 1.3-1.3V1.3A1.3 1.3 0 0 0 7.4 0H1.3Zm.62 6.78V1.92h4.86v4.86H1.92ZM12.599 0a1.3 1.3 0 0 0-1.3 1.3V7.4a1.3 1.3 0 0 0 1.3 1.3H18.7A1.3 1.3 0 0 0 20 7.4V1.3A1.3 1.3 0 0 0 18.7 0H12.6Zm.621 6.78V1.92h4.86v4.86h-4.86ZM0 12.599a1.3 1.3 0 0 1 1.3-1.3H7.4a1.3 1.3 0 0 1 1.3 1.3V18.7A1.3 1.3 0 0 1 7.4 20H1.3A1.3 1.3 0 0 1 0 18.7V12.6Zm1.92.621v4.86h4.86v-4.86H1.92ZM12.599 11.3a1.3 1.3 0 0 0-1.3 1.299V18.7A1.3 1.3 0 0 0 12.6 20H18.7A1.3 1.3 0 0 0 20 18.7V12.6a1.3 1.3 0 0 0-1.3-1.3H12.6Zm.621 6.78v-4.86h4.86v4.86h-4.86Z"/></g></svg>
